X:209
T:Little Pickle
M:6/8
L:1/8
C:J. Lowe
K:A
E|"A" A3 "E7" cBA|"A" EAB cBA|"D" dcB "Bm" fdB|"E7" bge efg|
|"A" a3 "E7" cBA|"A" EAB cBA|"D"dcd "E7"efg|"A"aec A2 B:|
"A" A2 a "D" aga|"A" Acd "D7" ecA|"G" B2 =g "C" =gf=g|"G" B=GB "E7" dcB|
|"A" A2 a "D" aga|"A" Acd ecA|"D" dcd "E7" efg|"A" aec A3:|]
